X:1
T:Sailors Journal,Comd by Dibdin,The. JC.165
T:Sailors Journal,Comd by Dibdin,The. JC.165
T:Song plus Flute tune
C:Song plus Flute tune
L:1/8
Q:1/8=100
M:3/4
K:A
V:1 treble 
V:1
"^INTRO" ec A |"^ANDANTINO" A2{BA} G{c} AFD | C>.D.E.F.G.A | Bc{e} d3 c | cBzafd | cecAGE | %6
 D2{EF} E Ace |{e} d>c{e} d3 B | c"^SONG"A z"^Two's past the Me--ri---dian" e cA | %9
 (A2{BA} G)"^half past four"A FD | (C>D E)"^by signal I from Nancy parted"F GA | Bc{e} d3 c | %12
 cB z"^at six she li\nn--gered" e cA | (A2{BA} G)A"^on the" FD | %14
"^shore,  with uplift" (C>D E)A ce |"^hands & broken hearted" d>c{e} d3/2B | %16
 cA z"^at seven while" A c B/A/ |"^taughtening the forestay I saw her" BGEc BG | E3 F EC | %19
"^faint or else was fancy" (A,>B, C)E Ac | cB z"^at eight we all got\n" e fe | %21
{e} d3 c"^under weigh"{c} B c/A/ | (A2{BA} G)"^and bade a long"A FD | C"^Adieu to Nancy"E d3 e | %24
 c Azafd | cecAGE | D2{EF} EAce |{e} d>c{e} d3 B | c"^FIN"A z ||[K:D]"^FLUTE SOLO" af d | %30
 d2{ed} cdBG |{G} F>G ABcd | ef{a} g3 fzfezafd | d2{ed} cdBG | F>GAdfa | g>f{a} g3 e | %36
 fdzd/e/ f e/d/ | e>cAedc | A3 BAF | D>EFAdf | fezaba |{a} g3 f ef/d/ | d2{ed} cdBG | F2 A2 G3 a | %44
 fd z || ae a c a | %46

